svg/24/template.svg

<svg width="24" height="24" viewBox="0 0 24 24" fill="currentColor" xmlns="http://www.w3.org/2000/svg"><path fill-rule="evenodd" clip-rule="evenodd" d="M3 5C3 3.89543 3.89543 3 5 3H19C20.1046 3 21 3.89543 21 5V19C21 20.1046 20.1046 21 19 21H5C3.89543 21 3 20.1046 3 19V5ZM14.5 4.5H19C19.2761 4.5 19.5 4.72386 19.5 5V9.5H14.5V4.5ZM13 4.5H5C4.72386 4.5 4.5 4.72386 4.5 5V19C4.5 19.2761 4.72386 19.5 5 19.5H13V4.5ZM14.5 19.5H19C19.2761 19.5 19.5 19.2761 19.5 19V11H14.5V19.5Z"/></svg>

<svg xmlns="http://www.w3.org/2000/svg" width="24" height="24" fill="currentColor" viewBox="0 0 24 24">
  <path fill-rule="evenodd" d="M3 5a2 2 0 0 1 2-2h14a2 2 0 0 1 2 2v14a2 2 0 0 1-2 2H5a2 2 0 0 1-2-2V5Zm11.5-.5H19a.5.5 0 0 1 .5.5v4.5h-5v-5Zm-1.5 0H5a.5.5 0 0 0-.5.5v14a.5.5 0 0 0 .5.5h8v-15Zm1.5 15H19a.5.5 0 0 0 .5-.5v-8h-5v8.5Z" clip-rule="evenodd"/>
</svg>
